!!! OTL: Berkowitz422
!!! Chapter: 1
!!! Section: IV
!!! Page: 105
!!! Mode: 
!!! Encoder: DJB
**kern
*staff1
*I"Piano
=1-
*clefG2
*k[b-e-a-]
*E-:
*M3/4
4r
4r
4b-\
=2
4ee-\
4f/
4f/
=3
4.f/
8g/
8a-\L
8cc\J
=4
4b-\
4e-/
4e-/
=5
4e-/
4r
4d/
=6
4c/
4a-/
4c/
=7
4B-/
4g/
4B-/
=8
8c/L
8d/J
8e-/L
8f/J
8g/L
8e-/J
=9
8f/L
8g/J
8a-/L
8b-/J
8cc\L
8dd\J
=10
4ee-\
4f/
4f/
=11
!!linebreak:original
4.f/
8g/
8a-\L
8cc\J
=12
4b-\
4g/
4bn\
=13
2cc\
4an/
=14
4b-\
4f#/
4g/
=15
8f/L
8g/J
8a-/L
8b-/J
8cc\L
8dd\J
=16
4ee-\
4g/
4b-\
=17
2e-/
4r
==
*-
